src/images/contact/contact-help.svg

<?xml version="1.0" encoding="utf-8"?>
<!-- Generator: Adobe Illustrator 19.2.1, SVG Export Plug-In . SVG Version: 6.00 Build 0)  -->
<svg version="1.1" id="Layer_1" xmlns="http://www.w3.org/2000/svg" xmlns:xlink="http://www.w3.org/1999/xlink" x="0px" y="0px"
	 viewBox="0 0 54 54" style="enable-background:new 0 0 54 54;" xml:space="preserve">
<style type="text/css">
	.st0{fill:#FFEBD9;}
	.st1{clip-path:url(#SVGID_2_);}
	.st2{fill:#E84344;}
	.st3{fill:#52306C;}
	.st4{fill:none;stroke:#52306C;stroke-width:2;stroke-linecap:round;stroke-linejoin:round;}
	.st5{fill:none;stroke:#FFF7F2;stroke-linecap:round;stroke-miterlimit:10;}
	.st6{opacity:0.5;fill:none;stroke:#FFF7F2;stroke-linecap:round;stroke-miterlimit:10;enable-background:new    ;}
</style>
<title>contact</title>
<path class="st0" d="M27,3C13.7,3,3,13.7,3,27s10.7,24,24,24s24-10.7,24-24S40.3,3,27,3z M27,39c-6.6,0-12-5.4-12-12s5.4-12,12-12
	s12,5.4,12,12S33.6,39,27,39z"/>
<g>
	<defs>
		<path id="SVGID_1_" d="M27,3C13.7,3,3,13.7,3,27s10.7,24,24,24s24-10.7,24-24S40.3,3,27,3z M27,39c-6.6,0-12-5.4-12-12
			s5.4-12,12-12s12,5.4,12,12S33.6,39,27,39z"/>
	</defs>
	<clipPath id="SVGID_2_">
		<use xlink:href="#SVGID_1_"  style="overflow:visible;"/>
	</clipPath>
	<g class="st1">
		<path class="st2" d="M22.8,51.5c-0.3,0-0.5-0.2-0.5-0.5V31.7H3c-0.3,0-0.5-0.2-0.5-0.5v-8.4c0-0.3,0.2-0.5,0.5-0.5h19.3V3
			c0-0.3,0.2-0.5,0.5-0.5h8.4c0.3,0,0.5,0.2,0.5,0.5v19.3H51c0.3,0,0.5,0.2,0.5,0.5v8.4c0,0.3-0.2,0.5-0.5,0.5H31.7V51
			c0,0.3-0.2,0.5-0.5,0.5H22.8z"/>
		<path class="st3" d="M31.2,3v19.8H51v8.4H31.2V51h-8.4V31.2H3v-8.4h19.8V3H31.2 M31.2,2h-8.4c-0.6,0-1,0.4-1,1v18.8H3
			c-0.6,0-1,0.4-1,1v8.4c0,0.6,0.4,1,1,1h18.8V51c0,0.6,0.4,1,1,1h8.4c0.6,0,1-0.4,1-1V32.2H51c0.6,0,1-0.4,1-1v-8.4
			c0-0.6-0.4-1-1-1H32.2V3C32.2,2.4,31.8,2,31.2,2C31.2,2,31.2,2,31.2,2z"/>
	</g>
</g>
<path class="st4" d="M27,3C13.7,3,3,13.7,3,27s10.7,24,24,24s24-10.7,24-24S40.3,3,27,3z M27,39c-6.6,0-12-5.4-12-12s5.4-12,12-12
	s12,5.4,12,12S33.6,39,27,39z"/>
<path class="st5" d="M19.4,8.1c-4.9,2-8.8,5.7-11,10.6"/>
<path class="st6" d="M27,6.6c-1,0-1.9,0.1-2.9,0.2"/>
</svg>

<svg id="Layer_1" data-name="Layer 1" xmlns="http://www.w3.org/2000/svg" xmlns:xlink="http://www.w3.org/1999/xlink" viewBox="0 0 54 54"><defs><style>.cls-1,.cls-6,.cls-7,.cls-8{fill:none;}.cls-2{fill:#ffebd9;}.cls-3{clip-path:url(#clip-path);}.cls-4{fill:#e84344;}.cls-5{fill:#52306c;}.cls-6{stroke:#52306c;stroke-linejoin:round;stroke-width:2px;}.cls-6,.cls-7,.cls-8{stroke-linecap:round;}.cls-7,.cls-8{stroke:#fff7f2;stroke-miterlimit:10;}.cls-8{opacity:0.5;}</style><clipPath id="clip-path"><path class="cls-1" d="M27,3A24,24,0,1,0,51,27,24,24,0,0,0,27,3Zm0,36A12,12,0,1,1,39,27,12,12,0,0,1,27,39Z"/></clipPath></defs><title>contact</title><path class="cls-2" d="M27,3A24,24,0,1,0,51,27,24,24,0,0,0,27,3Zm0,36A12,12,0,1,1,39,27,12,12,0,0,1,27,39Z"/><g class="cls-3"><path class="cls-4" d="M22.8,51.5a0.5,0.5,0,0,1-.5-0.5V31.7H3a0.5,0.5,0,0,1-.5-0.5V22.8A0.5,0.5,0,0,1,3,22.3H22.3V3a0.5,0.5,0,0,1,.5-0.5h8.4a0.5,0.5,0,0,1,.5.5V22.3H51a0.5,0.5,0,0,1,.5.5v8.4a0.5,0.5,0,0,1-.5.5H31.7V51a0.5,0.5,0,0,1-.5.5H22.8Z"/><path class="cls-5" d="M31.2,3V22.8H51v8.4H31.2V51H22.8V31.2H3V22.8H22.8V3h8.4m0-1H22.8a1,1,0,0,0-1,1V21.8H3a1,1,0,0,0-1,1v8.4a1,1,0,0,0,1,1H21.8V51a1,1,0,0,0,1,1h8.4a1,1,0,0,0,1-1V32.2H51a1,1,0,0,0,1-1V22.8a1,1,0,0,0-1-1H32.2V3a1,1,0,0,0-1-1h0Z"/></g><path class="cls-6" d="M27,3A24,24,0,1,0,51,27,24,24,0,0,0,27,3Zm0,36A12,12,0,1,1,39,27,12,12,0,0,1,27,39Z"/><path class="cls-7" d="M19.42,8.05A20.47,20.47,0,0,0,8.4,18.6"/><path class="cls-8" d="M27,6.6a20.57,20.57,0,0,0-2.91.21"/></svg>
